X:23
T:Alexander's March into Babylon. Ca1758.047
M:2/4
L:1/16
Q:1/4=100
B:Cahusac,T. 24 Country Dances for the Year 1758
Z:vmp.Mike Hicken 2015 www.village-music-project.org.uk
N:* There is no repeat sign shown here in the original.
K:G
Bc|dcde d2c2|BABc B2A2|G2AB c2B2|{B}A6 Bc|
dcde d2c2|BABc B2g2|f2ed e2^c2|d6 :|
|: d2|g2d2d2cB|e2d2 Td4|cded c2B2|A6 D2|
GFGA BABc|d2ef g2c2|B2AG A2D2|G6 "*" :|
W:
W: The 1st Cu. cast off one Cu. &  cross
W: over the 3d. Cu. .|  the same back
W: again :|  Cross over half figure and
W: Right and Left :|
